public/images/icon-codepen.svg

<svg width="16" height="16" viewBox="0 0 16 16" fill="none" xmlns="http://www.w3.org/2000/svg">
<path d="M10.9997 8.80111L8.66634 10.3564V12.7538L12.7977 9.99977L10.9997 8.80111ZM9.79767 7.99977L7.99967 6.80111L6.20167 7.99977L7.99967 9.19844L9.79767 7.99977ZM13.333 7.24511L12.2017 7.99977L13.333 8.75444V7.24511ZM12.7977 5.99977L8.66634 3.24577V5.64311L10.9997 7.19844L12.7977 5.99977ZM4.99967 7.19844L7.33301 5.64311V3.24577L3.20167 5.99977L4.99967 7.19844ZM3.20167 9.99977L7.33301 12.7538V10.3564L4.99967 8.80111L3.20167 9.99977ZM2.66634 8.75444L3.79767 7.99977L2.66634 7.24511V8.75444ZM1.33301 5.99977C1.33299 5.89005 1.36006 5.78201 1.41181 5.68525C1.46356 5.58849 1.5384 5.50601 1.62967 5.44511L7.62967 1.44511C7.73923 1.37201 7.86798 1.33301 7.99967 1.33301C8.13137 1.33301 8.26012 1.37201 8.36967 1.44511L14.3697 5.44511C14.461 5.50601 14.5358 5.58849 14.5875 5.68525C14.6393 5.78201 14.6664 5.89005 14.6663 5.99977V9.99977C14.6664 10.1095 14.6393 10.2175 14.5875 10.3143C14.5358 10.4111 14.461 10.4935 14.3697 10.5544L8.36967 14.5544C8.26012 14.6275 8.13137 14.6665 7.99967 14.6665C7.86798 14.6665 7.73923 14.6275 7.62967 14.5544L1.62967 10.5544C1.5384 10.4935 1.46356 10.4111 1.41181 10.3143C1.36006 10.2175 1.33299 10.1095 1.33301 9.99977V5.99977Z" fill="#ffffff"/>
</svg>

<svg xmlns="http://www.w3.org/2000/svg" width="16" height="16" fill="none" viewBox="0 0 16 16"><path fill="#fff" d="m11 8.801-2.334 1.555v2.398L12.798 10 11 8.8ZM9.798 8 8 6.8 6.202 8 8 9.198 9.798 8Zm3.535-.755L12.202 8l1.131.754V7.245ZM12.798 6 8.666 3.246v2.397L11 7.198 12.798 6ZM5 7.198l2.333-1.555V3.246L3.202 6 5 7.198ZM3.202 10l4.131 2.754v-2.398L5 8.801 3.202 10Zm-.536-1.246L3.798 8l-1.132-.755v1.51ZM1.333 6a.667.667 0 0 1 .297-.555l6-4a.667.667 0 0 1 .74 0l6 4a.666.666 0 0 1 .296.555v4a.665.665 0 0 1-.296.554l-6 4a.667.667 0 0 1-.74 0l-6-4A.666.666 0 0 1 1.333 10V6Z"/></svg>
